X:1
T:Holy Guide, 66.66
T:Holy Guide, 66.66
T:Uzziah Christopher Burnap, 1895
T:Public Domain Courtesy of the Cyber Hymnal™
C:Uzziah Christopher Burnap, 1895
Z:Public Domain
Z:Courtesy of the Cyber Hymnal™
%%score ( 1 2 ) ( 3 4 )
L:1/8
Q:1/4=110
M:4/4
K:A
V:1 treble 
V:2 treble 
V:3 bass 
V:4 bass 
V:1
 [CE]2 | [CE]2 [CF]2 [CG]2 [CA]2 | (A4 G2) [DF]2 | [CE]2 [Ec]2 [Fc]2 [FB]2 | (A4 G2) [EG]2 | %5
 [^Ec]2 [EB]2 [EA]2 [EG]2 | ([^EG]4 F2) [^B,=F]2 | [CE]2 [CE]2 [DE]2 [DE]2 | [CE]6 |] %9
V:2
 x2 | x8 | D6 x2 | x8 | E6 x2 | x8 | x4 =F2 x2 | x8 | x6 |] %9
V:3
 [A,,E,]2 | [A,,E,]2 [A,,E,]2 [A,,E,]2 [A,,E,]2 | [B,,E,]6 (F,G,) | %3
 [C,A,]2 [C,A,]2 (A,^A,) [D,B,]2 | (C4 B,2) [D,B,]2 | [C,B,]2 [C,D]2 [C,C]2 [C,B,]2 | %6
 (B,4 A,2) [^D,A,]2 | [E,A,]2 [E,A,]2 (G,F,) [E,G,]2 | [A,,A,]6 |] %9
V:4
 x2 | x8 | x6 B,,2 | x4 D,2 x2 | E,6 x2 | x8 | ^D,6 x2 | x4 E,2 x2 | x6 |] %9

